images/decorative/skills/html5-icon.svg

<svg width="512" height="512" fill="none" xmlns="http://www.w3.org/2000/svg"><path fill-rule="evenodd" clip-rule="evenodd" d="M71.085 460.819 30 0h451.456l-41.129 460.746L255.451 512 71.085 460.819Z" fill="#E44D26"/><path fill-rule="evenodd" clip-rule="evenodd" d="m255.728 472.824 149.388-41.416 35.147-393.73H255.728v435.146Z" fill="#F16529"/><g fill="#EBEBEB"><path d="M180.94 208.59h74.788v56.517H129.253l-15.244-170.91h141.719v56.518h-79.953l5.165 57.875ZM255.48 355.438l.248-.066v58.802l-.26.072-115.772-32.139-7.918-88.741h56.735l4.023 45.076 62.944 16.996Z"/></g><g fill="#fff"><path d="M255.532 94.197H397.11l-5.061 56.518H255.532V94.197ZM255.532 265.107V208.59h131.375l-1.379 15.176-14.132 158.341-115.864 32.112v-58.8l63.035-17.013 6.561-73.299h-69.596Z"/></g></svg>

<svg width="512" height="512" viewBox="0 0 512 512" fill="none" xmlns="http://www.w3.org/2000/svg">
<g id="Type=Default, showSymbol=True, showText=False">
<g id="symbol">
<path id="Shape" fill-rule="evenodd" clip-rule="evenodd" d="M71.0852 460.819L30 0H481.456L440.327 460.746L255.451 512L71.0852 460.819Z" fill="#E44D26"/>
<path id="Shape_2" fill-rule="evenodd" clip-rule="evenodd" d="M255.728 472.824L405.116 431.408L440.263 37.6788H255.728V472.824Z" fill="#F16529"/>
<g id="Union">
<path d="M180.94 208.59H255.728V265.107H129.253L114.009 94.1969H255.728V150.715H175.775L180.94 208.59Z" fill="#EBEBEB"/>
<path d="M255.48 355.438L255.728 355.372V414.174L255.468 414.246L139.696 382.107L131.778 293.366H188.513L192.536 338.442L255.48 355.438Z" fill="#EBEBEB"/>
</g>
<g id="Union_2">
<path d="M255.532 94.1969H397.11L392.049 150.715H255.532V94.1969Z" fill="white"/>
<path d="M255.532 265.107V208.59H386.907L385.528 223.766L371.396 382.107L255.532 414.219V355.419L318.567 338.406L325.128 265.107H255.532Z" fill="white"/>
</g>
</g>
</g>
</svg>
